X:3
T:Hangman's Melody A
M:4/4
R:
L:1/8
K:A

EF |: AEAc BABd | cBAc BAFE |
AEAc BABd |1 cBAc B2 EF :|2 cABG A2 Ac |

|:ecAc ecAc | BABc BAGB|
ecAc eAc2 |1 BABc A2 Ac :|2 BABc A4 |

B6 c2-| c2 Bc BAFE | B6 d2-| d2 c2 BAFE |
B6 c2-| c2 Bc BAFE | B4 c3 d-|d2 c2 BAFE |

|:cABc dfed | cABc dfed |cABc dfe=c | cec=c BABc |
cABc dfed | cABc dfed | cefg afec |1 e=cBG A2 B=c :|2e=cBG A4 ||

